media/e-logo-title.svg

<?xml version="1.0" encoding="UTF-8" standalone="no"?>
<!-- Created with Sodipodi ("http://www.sodipodi.com/") -->

<svg
   xmlns:dc="http://purl.org/dc/elements/1.1/"
   xmlns:cc="http://creativecommons.org/ns#"
   xmlns:rdf="http://www.w3.org/1999/02/22-rdf-syntax-ns#"
   xmlns:svg="http://www.w3.org/2000/svg"
   xmlns="http://www.w3.org/2000/svg"
   xmlns:xlink="http://www.w3.org/1999/xlink"
   xmlns:sodipodi="http://sodipodi.sourceforge.net/DTD/sodipodi-0.dtd"
   xmlns:inkscape="http://www.inkscape.org/namespaces/inkscape"
   id="svg559"
   sodipodi:version="0.33"
   width="482"
   height="652"
   sodipodi:docname="e-logo-title.svg"
   version="1.1"
   inkscape:version="0.91 r13725">
  <metadata
     id="metadata31">
    <rdf:RDF>
      <cc:Work
         rdf:about="">
        <dc:format>image/svg+xml</dc:format>
        <dc:type
           rdf:resource="http://purl.org/dc/dcmitype/StillImage" />
        <dc:title></dc:title>
      </cc:Work>
    </rdf:RDF>
  </metadata>
  <defs
     id="defs561">
    <linearGradient
       id="linearGradient564">
      <stop
         style="stop-color:#000;stop-opacity:1;"
         offset="0"
         id="stop565" />
      <stop
         style="stop-color:#fff;stop-opacity:1;"
         offset="1"
         id="stop566" />
    </linearGradient>
    <linearGradient
       xlink:href="#linearGradient564"
       id="linearGradient567" />
    <radialGradient
       xlink:href="#linearGradient564"
       id="radialGradient568"
       cx="0.5"
       cy="0.5"
       r="0.5"
       fx="0.5"
       fy="0.5" />
    <radialGradient
       xlink:href="#linearGradient564"
       id="radialGradient620" />
  </defs>
  <sodipodi:namedview
     id="base"
     snaptogrid="true"
     showgrid="true"
     gridtolerance="5.000000px"
     snaptoguides="false"
     bordercolor="#000000"
     borderopacity="0.32941176"
     pagecolor="#303030"
     inkscape:pageopacity="0"
     inkscape:zoom="3.0076687"
     inkscape:cx="241"
     inkscape:cy="326"
     inkscape:window-width="3840"
     inkscape:window-height="2097"
     inkscape:window-x="1920"
     inkscape:window-y="0"
     inkscape:window-maximized="1"
     inkscape:current-layer="svg559"
     inkscape:snap-bbox="true"
     inkscape:bbox-nodes="true"
     units="px" />
  <g
     id="g600"
     style="fill:#ffffff;fill-opacity:1;stroke:none;stroke-opacity:1"
     transform="translate(-141.7323,-173.59046)">
    <path
       style="font-size:12px;fill:#ffffff;fill-opacity:1;fill-rule:evenodd;stroke:none;stroke-width:1;stroke-opacity:1"
       d="m 253.0964,451.5499 298.0828,199.0175 c 12.3337,-12.8429 12.3337,-12.8429 20.2182,-24.6206 67.0184,-100.1107 43.7081,-243.6352 -62.1011,-314.0059 -106.1899,-71.5505 -247.7678,-38.4091 -315.2532,61.7845 -64.5802,97.0834 -49.1298,239.61 62.3976,315.1319 97.5272,64.4282 188.9762,36.1043 245.0135,5.0054 L 473.477,645.883 C 413.0772,677.728 342.3128,681.5232 287.7821,644.4234 203.9245,588.8802 187.4273,479.7646 239.093,403.3519 c 50.833,-76.6977 156.0308,-100.0815 239.2262,-45.138 87.5816,59.3819 82.47,162.5595 60.7632,208.7355 -9.5889,-6.5965 -19.1778,-13.1929 -28.7667,-19.7894 24.9959,-64.7622 -0.4326,-128.689 -50.4879,-162.1982 -58.8887,-39.4226 -144.3998,-32.7074 -192.214,38.5467 -9.3484,14.1343 -9.3484,14.1343 -14.5174,28.0414 z"
       id="path582"
       sodipodi:nodetypes="cccccccccccccccc"
       inkscape:connector-curvature="0" />
    <path
       style="fill:#ffffff;fill-opacity:1;fill-rule:evenodd;stroke:none;stroke-width:1pt;stroke-linecap:butt;stroke-linejoin:miter;stroke-opacity:1"
       d="m 381.9484,173.6221 c -4.4291,44.2913 -10.6299,72.6377 -28.3464,79.7244 17.7165,-1.7717 19.4882,-1.7717 28.3464,-1.7717 8.8583,0 10.63,0 28.3465,1.7717 -17.7165,-7.0867 -23.9173,-35.4331 -28.3465,-79.7244 z"
       id="path578"
       sodipodi:nodetypes="ccccc"
       inkscape:connector-curvature="0" />
    <path
       style="font-size:12px;fill:#ffffff;fill-opacity:1;fill-rule:evenodd;stroke:none;stroke-width:1;stroke-opacity:1"
       d="m 314.5494,180.6657 c 4.8241,44.2501 4.618,73.266 -11.2504,83.8626 16.9673,-5.3964 18.7008,-5.7627 27.3676,-7.5942 8.6669,-1.8315 10.4003,-2.1978 28.1003,-4.1274 -18.7989,-3.2706 -30.7265,-29.7224 -44.2175,-72.141 z"
       id="path579"
       sodipodi:nodetypes="ccccc"
       inkscape:connector-curvature="0" />
    <path
       style="font-size:12px;fill:#ffffff;fill-opacity:1;fill-rule:evenodd;stroke:none;stroke-width:1;stroke-opacity:1"
       d="m 251.0898,201.0402 c 13.7231,42.344 19.4228,70.7954 6.0412,84.3979 15.5152,-8.7345 17.1379,-9.4457 25.251,-13.0017 8.1133,-3.5559 9.7359,-4.2671 26.6735,-9.7563 -19.0711,0.6212 -36.1294,-22.8518 -57.9657,-61.6399 z"
       id="path584"
       sodipodi:nodetypes="ccccc"
       inkscape:connector-curvature="0" />
    <path
       style="font-size:12px;fill:#ffffff;fill-opacity:1;fill-rule:evenodd;stroke:none;stroke-opacity:1"
       d="m 192.1871,234.5471 c 22.1815,38.5918 33.6405,65.2499 23.3605,81.3253 13.3739,-11.7537 14.8146,-12.785 22.0172,-17.9416 7.2028,-5.1565 8.6433,-6.1879 24.08,-15.0604 -18.5307,4.5508 -40.0735,-14.8881 -69.4577,-48.3233 z"
       id="path585"
       sodipodi:nodetypes="ccccc"
       inkscape:connector-curvature="0" />
    <path
       style="font-size:12px;fill:#ffffff;fill-opacity:1;fill-rule:evenodd;stroke:none;stroke-opacity:1"
       d="m 141.7323,279.2385 c 29.644,33.2051 46.3405,56.9368 39.5862,74.7827 10.6708,-14.2529 11.8686,-15.5585 17.8568,-22.0861 5.9884,-6.5276 7.1859,-7.8332 20.468,-19.6907 -17.1987,8.2645 -42.2787,-6.3285 -77.911,-33.0059 z"
       id="path586"
       sodipodi:nodetypes="ccccc"
       inkscape:connector-curvature="0" />
    <path
       style="font-size:12px;fill:#ffffff;fill-opacity:1;fill-rule:evenodd;stroke:none;stroke-width:1;stroke-opacity:1"
       d="m 450.0762,180.7087 c -4.8241,44.2501 -4.618,73.266 11.2504,83.8626 -16.9673,-5.3964 -18.7008,-5.7627 -27.3676,-7.5942 -8.6669,-1.8315 -10.4003,-2.1978 -28.1003,-4.1274 18.7989,-3.2706 30.7265,-29.7224 44.2175,-72.141 z"
       id="path587"
       sodipodi:nodetypes="ccccc"
       inkscape:connector-curvature="0" />
    <path
       style="font-size:12px;fill:#ffffff;fill-opacity:1;fill-rule:evenodd;stroke:none;stroke-width:1;stroke-opacity:1"
       d="m 513.5358,201.0832 c -13.7231,42.344 -19.4228,70.7954 -6.0412,84.3979 -15.5152,-8.7345 -17.1379,-9.4457 -25.251,-13.0017 -8.1133,-3.5559 -9.7359,-4.2671 -26.6735,-9.7563 19.0711,0.6212 36.1294,-22.8518 57.9657,-61.6399 z"
       id="path588"
       sodipodi:nodetypes="ccccc"
       inkscape:connector-curvature="0" />
    <path
       style="font-size:12px;fill:#ffffff;fill-opacity:1;fill-rule:evenodd;stroke:none;stroke-opacity:1"
       d="m 572.4385,234.5901 c -22.1815,38.5918 -33.6405,65.2499 -23.3605,81.3253 -13.3739,-11.7537 -14.8146,-12.785 -22.0172,-17.9416 -7.2028,-5.1565 -8.6433,-6.1879 -24.08,-15.0604 18.5307,4.5508 40.0735,-14.8881 69.4577,-48.3233 z"
       id="path589"
       sodipodi:nodetypes="ccccc"
       inkscape:connector-curvature="0" />
    <path
       style="font-size:12px;fill:#ffffff;fill-opacity:1;fill-rule:evenodd;stroke:none;stroke-opacity:1"
       d="m 622.8933,279.2815 c -29.644,33.2051 -46.3405,56.9368 -39.5862,74.7827 -10.6708,-14.2529 -11.8686,-15.5585 -17.8568,-22.0861 -5.9884,-6.5276 -7.1859,-7.8332 -20.468,-19.6907 17.1987,8.2645 42.2787,-6.3285 77.911,-33.0059 z"
       id="path590"
       sodipodi:nodetypes="ccccc"
       inkscape:connector-curvature="0" />
    <path
       style="fill:#ffffff;fill-opacity:1;fill-rule:evenodd;stroke:none;stroke-width:1pt;stroke-linecap:butt;stroke-linejoin:miter;stroke-opacity:1"
       d="m 382.6772,825.5905 c -4.4291,-44.2913 -10.6299,-72.6377 -28.3464,-79.7244 17.7165,1.7717 19.4882,1.7717 28.3464,1.7717 8.8583,0 10.63,0 28.3465,-1.7717 -17.7165,7.0867 -23.9173,35.4331 -28.3465,79.7244 z"
       id="path591"
       sodipodi:nodetypes="ccccc"
       inkscape:connector-curvature="0" />
    <path
       style="font-size:12px;fill:#ffffff;fill-opacity:1;fill-rule:evenodd;stroke:none;stroke-width:1;stroke-opacity:1"
       d="m 315.2782,818.5469 c 4.8241,-44.2501 4.618,-73.266 -11.2504,-83.8626 16.9673,5.3964 18.7008,5.7627 27.3676,7.5942 8.6669,1.8315 10.4003,2.1978 28.1003,4.1274 -18.7989,3.2706 -30.7265,29.7224 -44.2175,72.141 z"
       id="path592"
       sodipodi:nodetypes="ccccc"
       inkscape:connector-curvature="0" />
    <path
       style="font-size:12px;fill:#ffffff;fill-opacity:1;fill-rule:evenodd;stroke:none;stroke-width:1;stroke-opacity:1"
       d="m 251.8186,798.1724 c 13.7231,-42.344 19.4228,-70.7954 6.0412,-84.3979 15.5152,8.7345 17.1379,9.4457 25.251,13.0017 8.1133,3.5559 9.7359,4.2671 26.6735,9.7563 -19.0711,-0.6212 -36.1294,22.8518 -57.9657,61.6399 z"
       id="path593"
       sodipodi:nodetypes="ccccc"
       inkscape:connector-curvature="0" />
    <path
       style="font-size:12px;fill:#ffffff;fill-opacity:1;fill-rule:evenodd;stroke:none;stroke-opacity:1"
       d="m 192.9159,764.6655 c 22.1815,-38.5918 33.6405,-65.2499 23.3605,-81.3253 13.3739,11.7537 14.8146,12.785 22.0172,17.9416 7.2028,5.1565 8.6433,6.1879 24.08,15.0604 -18.5307,-4.5508 -40.0735,14.8881 -69.4577,48.3233 z"
       id="path594"
       sodipodi:nodetypes="ccccc"
       inkscape:connector-curvature="0" />
    <path
       style="font-size:12px;fill:#ffffff;fill-opacity:1;fill-rule:evenodd;stroke:none;stroke-opacity:1"
       d="m 142.4611,719.9741 c 29.644,-33.2051 46.3405,-56.9368 39.5862,-74.7827 10.6708,14.2529 11.8686,15.5585 17.8568,22.0861 5.9884,6.5276 7.1859,7.8332 20.468,19.6907 -17.1987,-8.2645 -42.2787,6.3285 -77.911,33.0059 z"
       id="path595"
       sodipodi:nodetypes="ccccc"
       inkscape:connector-curvature="0" />
    <path
       style="font-size:12px;fill:#ffffff;fill-opacity:1;fill-rule:evenodd;stroke:none;stroke-width:1;stroke-opacity:1"
       d="m 450.805,818.5039 c -4.8241,-44.2501 -4.618,-73.266 11.2504,-83.8626 -16.9673,5.3964 -18.7008,5.7627 -27.3676,7.5942 -8.6669,1.8315 -10.4003,2.1978 -28.1003,4.1274 18.7989,3.2706 30.7265,29.7224 44.2175,72.141 z"
       id="path596"
       sodipodi:nodetypes="ccccc"
       inkscape:connector-curvature="0" />
    <path
       style="font-size:12px;fill:#ffffff;fill-opacity:1;fill-rule:evenodd;stroke:none;stroke-width:1;stroke-opacity:1"
       d="m 514.2646,798.1294 c -13.7231,-42.344 -19.4228,-70.7954 -6.0412,-84.3979 -15.5152,8.7345 -17.1379,9.4457 -25.251,13.0017 -8.1133,3.5559 -9.7359,4.2671 -26.6735,9.7563 19.0711,-0.6212 36.1294,22.8518 57.9657,61.6399 z"
       id="path597"
       sodipodi:nodetypes="ccccc"
       inkscape:connector-curvature="0" />
    <path
       style="font-size:12px;fill:#ffffff;fill-opacity:1;fill-rule:evenodd;stroke:none;stroke-opacity:1"
       d="m 573.1673,764.6225 c -22.1815,-38.5918 -33.6405,-65.2499 -23.3605,-81.3253 -13.3739,11.7537 -14.8146,12.785 -22.0172,17.9416 -7.2028,5.1565 -8.6433,6.1879 -24.08,15.0604 18.5307,-4.5508 40.0735,14.8881 69.4577,48.3233 z"
       id="path598"
       sodipodi:nodetypes="ccccc"
       inkscape:connector-curvature="0" />
    <path
       style="font-size:12px;fill:#ffffff;fill-opacity:1;fill-rule:evenodd;stroke:none;stroke-opacity:1"
       d="m 623.6221,719.9311 c -29.644,-33.2051 -46.3405,-56.9368 -39.5862,-74.7827 -10.6708,14.2529 -11.8686,15.5585 -17.8568,22.0861 -5.9884,6.5276 -7.1859,7.8332 -20.468,19.6907 17.1987,-8.2645 42.2787,6.3285 77.911,33.0059 z"
       id="path599"
       sodipodi:nodetypes="ccccc"
       inkscape:connector-curvature="0" />
  </g>
</svg>

<?xml version="1.0" encoding="UTF-8" standalone="no"?>
<!-- Created with Sodipodi ("http://www.sodipodi.com/") -->

<svg
   xmlns:dc="http://purl.org/dc/elements/1.1/"
   xmlns:cc="http://creativecommons.org/ns#"
   xmlns:rdf="http://www.w3.org/1999/02/22-rdf-syntax-ns#"
   xmlns:svg="http://www.w3.org/2000/svg"
   xmlns="http://www.w3.org/2000/svg"
   xmlns:xlink="http://www.w3.org/1999/xlink"
   xmlns:sodipodi="http://sodipodi.sourceforge.net/DTD/sodipodi-0.dtd"
   xmlns:inkscape="http://www.inkscape.org/namespaces/inkscape"
   id="svg559"
   sodipodi:version="0.33"
   width="210mm"
   height="297mm"
   sodipodi:docname="e-logo-title.svg"
   version="1.1"
   inkscape:version="0.91 r13725">
  <metadata
     id="metadata31">
    <rdf:RDF>
      <cc:Work
         rdf:about="">
        <dc:format>image/svg+xml</dc:format>
        <dc:type
           rdf:resource="http://purl.org/dc/dcmitype/StillImage" />
        <dc:title></dc:title>
      </cc:Work>
    </rdf:RDF>
  </metadata>
  <defs
     id="defs561">
    <linearGradient
       id="linearGradient564">
      <stop
         style="stop-color:#000;stop-opacity:1;"
         offset="0"
         id="stop565" />
      <stop
         style="stop-color:#fff;stop-opacity:1;"
         offset="1"
         id="stop566" />
    </linearGradient>
    <linearGradient
       xlink:href="#linearGradient564"
       id="linearGradient567" />
    <radialGradient
       xlink:href="#linearGradient564"
       id="radialGradient568"
       cx="0.500000"
       cy="0.500000"
       r="0.500000"
       fx="0.500000"
       fy="0.500000" />
    <radialGradient
       xlink:href="#linearGradient564"
       id="radialGradient620" />
  </defs>
  <sodipodi:namedview
     id="base"
     snaptogrid="true"
     showgrid="true"
     gridtolerance="5.000000px"
     snaptoguides="false"
     bordercolor="#000000"
     borderopacity="0.32941176"
     pagecolor="#303030"
     inkscape:pageopacity="0"
     inkscape:zoom="0.22425739"
     inkscape:cx="-495.25974"
     inkscape:cy="526.1811"
     inkscape:window-width="3840"
     inkscape:window-height="2097"
     inkscape:window-x="1920"
     inkscape:window-y="0"
     inkscape:window-maximized="1"
     inkscape:current-layer="svg559">
    <inkscape:grid
       id="GridFromPre046Settings"
       type="xygrid"
       originx="0px"
       originy="0px"
       spacingx="2.000000mm"
       spacingy="2.000000mm"
       color="#3f3fff"
       empcolor="#3f3fff"
       opacity="0.15"
       empopacity="0.38"
       empspacing="5" />
  </sodipodi:namedview>
  <g
     id="g600"
     style="fill:#ffffff;fill-opacity:1;stroke:none;stroke-opacity:1">
    <path
       style="font-size:12;fill:#ffffff;fill-rule:evenodd;stroke:none;stroke-width:1;fill-opacity:1;stroke-opacity:1"
       d="M 253.0964 451.5499 L 551.1792 650.5674 C 563.5129 637.7245 563.5129 637.7245 571.3974 625.9468 C 638.4158 525.8361 615.1055 382.3116 509.2963 311.9409 C 403.1064 240.3904 261.5285 273.5318 194.0431 373.7254 C 129.4629 470.8088 144.9133 613.3354 256.4407 688.8573 C 353.9679 753.2855 445.4169 724.9616 501.4542 693.8627 L 473.4770 645.8830 C 413.0772 677.7280 342.3128 681.5232 287.7821 644.4234 C 203.9245 588.8802 187.4273 479.7646 239.0930 403.3519 C 289.9260 326.6542 395.1238 303.2704 478.3192 358.2139 C 565.9008 417.5958 560.7892 520.7734 539.0824 566.9494 C 529.4935 560.3529 519.9046 553.7565 510.3157 547.1600 C 535.3116 482.3978 509.8831 418.4710 459.8278 384.9618 C 400.9391 345.5392 315.4280 352.2544 267.6138 423.5085 C 258.2654 437.6428 258.2654 437.6428 253.0964 451.5499 z "
       id="path582"
       sodipodi:nodetypes="cccccccccccccccc" />
    <path
       style="fill:#ffffff;fill-rule:evenodd;stroke:none;stroke-opacity:1;stroke-width:1pt;stroke-linejoin:miter;stroke-linecap:butt;fill-opacity:1"
       d="M 381.9484 173.6221 C 377.5193 217.9134 371.3185 246.2598 353.6020 253.3465 C 371.3185 251.5748 373.0902 251.5748 381.9484 251.5748 C 390.8067 251.5748 392.5784 251.5748 410.2949 253.3465 C 392.5784 246.2598 386.3776 217.9134 381.9484 173.6221 z "
       id="path578"
       sodipodi:nodetypes="ccccc" />
    <path
       style="font-size:12;fill:#ffffff;fill-opacity:1;fill-rule:evenodd;stroke:none;stroke-width:1;stroke-opacity:1"
       d="M 314.5494 180.6657 C 319.3735 224.9158 319.1674 253.9317 303.2990 264.5283 C 320.2663 259.1319 321.9998 258.7656 330.6666 256.9341 C 339.3335 255.1026 341.0669 254.7363 358.7669 252.8067 C 339.9680 249.5361 328.0404 223.0843 314.5494 180.6657 z "
       id="path579"
       sodipodi:nodetypes="ccccc" />
    <path
       style="font-size:12;fill:#ffffff;fill-opacity:1;fill-rule:evenodd;stroke:none;stroke-width:1;stroke-opacity:1"
       d="M 251.0898 201.0402 C 264.8129 243.3842 270.5126 271.8356 257.1310 285.4381 C 272.6462 276.7036 274.2689 275.9924 282.3820 272.4364 C 290.4953 268.8805 292.1179 268.1693 309.0555 262.6801 C 289.9844 263.3013 272.9261 239.8283 251.0898 201.0402 z "
       id="path584"
       sodipodi:nodetypes="ccccc" />
    <path
       style="font-size:12;fill:#ffffff;fill-opacity:1;fill-rule:evenodd;stroke:none;stroke-opacity:1"
       d="M 192.1871 234.5471 C 214.3686 273.1389 225.8276 299.7970 215.5476 315.8724 C 228.9215 304.1187 230.3622 303.0874 237.5648 297.9308 C 244.7676 292.7743 246.2081 291.7429 261.6448 282.8704 C 243.1141 287.4212 221.5713 267.9823 192.1871 234.5471 z "
       id="path585"
       sodipodi:nodetypes="ccccc" />
    <path
       style="font-size:12;fill:#ffffff;fill-opacity:1;fill-rule:evenodd;stroke:none;stroke-opacity:1"
       d="M 141.7323 279.2385 C 171.3763 312.4436 188.0728 336.1753 181.3185 354.0212 C 191.9893 339.7683 193.1871 338.4627 199.1753 331.9351 C 205.1637 325.4075 206.3612 324.1019 219.6433 312.2444 C 202.4446 320.5089 177.3646 305.9159 141.7323 279.2385 z "
       id="path586"
       sodipodi:nodetypes="ccccc" />
    <path
       style="font-size:12;fill:#ffffff;fill-opacity:1;fill-rule:evenodd;stroke:none;stroke-width:1;stroke-opacity:1"
       d="M 450.0762 180.7087 C 445.2521 224.9588 445.4582 253.9747 461.3266 264.5713 C 444.3593 259.1749 442.6258 258.8086 433.9590 256.9771 C 425.2921 255.1456 423.5587 254.7793 405.8587 252.8497 C 424.6576 249.5791 436.5852 223.1273 450.0762 180.7087 z "
       id="path587"
       sodipodi:nodetypes="ccccc" />
    <path
       style="font-size:12;fill:#ffffff;fill-opacity:1;fill-rule:evenodd;stroke:none;stroke-width:1;stroke-opacity:1"
       d="M 513.5358 201.0832 C 499.8127 243.4272 494.1130 271.8786 507.4946 285.4811 C 491.9794 276.7466 490.3567 276.0354 482.2436 272.4794 C 474.1303 268.9235 472.5077 268.2123 455.5701 262.7231 C 474.6412 263.3443 491.6995 239.8713 513.5358 201.0832 z "
       id="path588"
       sodipodi:nodetypes="ccccc" />
    <path
       style="font-size:12;fill:#ffffff;fill-opacity:1;fill-rule:evenodd;stroke:none;stroke-opacity:1"
       d="M 572.4385 234.5901 C 550.2570 273.1819 538.7980 299.8400 549.0780 315.9154 C 535.7041 304.1617 534.2634 303.1304 527.0608 297.9738 C 519.8580 292.8173 518.4175 291.7859 502.9808 282.9134 C 521.5115 287.4642 543.0543 268.0253 572.4385 234.5901 z "
       id="path589"
       sodipodi:nodetypes="ccccc" />
    <path
       style="font-size:12;fill:#ffffff;fill-opacity:1;fill-rule:evenodd;stroke:none;stroke-opacity:1"
       d="M 622.8933 279.2815 C 593.2493 312.4866 576.5528 336.2183 583.3071 354.0642 C 572.6363 339.8113 571.4385 338.5057 565.4503 331.9781 C 559.4619 325.4505 558.2644 324.1449 544.9823 312.2874 C 562.1810 320.5519 587.2610 305.9589 622.8933 279.2815 z "
       id="path590"
       sodipodi:nodetypes="ccccc" />
    <path
       style="fill:#ffffff;fill-rule:evenodd;stroke:none;stroke-opacity:1;stroke-width:1pt;stroke-linejoin:miter;stroke-linecap:butt;fill-opacity:1"
       d="M 382.6772 825.5905 C 378.2481 781.2992 372.0473 752.9528 354.3308 745.8661 C 372.0473 747.6378 373.8190 747.6378 382.6772 747.6378 C 391.5355 747.6378 393.3072 747.6378 411.0237 745.8661 C 393.3072 752.9528 387.1064 781.2992 382.6772 825.5905 z "
       id="path591"
       sodipodi:nodetypes="ccccc" />
    <path
       style="font-size:12;fill:#ffffff;fill-opacity:1;fill-rule:evenodd;stroke:none;stroke-width:1;stroke-opacity:1"
       d="M 315.2782 818.5469 C 320.1023 774.2968 319.8962 745.2809 304.0278 734.6843 C 320.9951 740.0807 322.7286 740.4470 331.3954 742.2785 C 340.0623 744.1100 341.7957 744.4763 359.4957 746.4059 C 340.6968 749.6765 328.7692 776.1283 315.2782 818.5469 z "
       id="path592"
       sodipodi:nodetypes="ccccc" />
    <path
       style="font-size:12;fill:#ffffff;fill-opacity:1;fill-rule:evenodd;stroke:none;stroke-width:1;stroke-opacity:1"
       d="M 251.8186 798.1724 C 265.5417 755.8284 271.2414 727.3770 257.8598 713.7745 C 273.3750 722.5090 274.9977 723.2202 283.1108 726.7762 C 291.2241 730.3321 292.8467 731.0433 309.7843 736.5325 C 290.7132 735.9113 273.6549 759.3843 251.8186 798.1724 z "
       id="path593"
       sodipodi:nodetypes="ccccc" />
    <path
       style="font-size:12;fill:#ffffff;fill-opacity:1;fill-rule:evenodd;stroke:none;stroke-opacity:1"
       d="M 192.9159 764.6655 C 215.0974 726.0737 226.5564 699.4156 216.2764 683.3402 C 229.6503 695.0939 231.0910 696.1252 238.2936 701.2818 C 245.4964 706.4383 246.9369 707.4697 262.3736 716.3422 C 243.8429 711.7914 222.3001 731.2303 192.9159 764.6655 z "
       id="path594"
       sodipodi:nodetypes="ccccc" />
    <path
       style="font-size:12;fill:#ffffff;fill-opacity:1;fill-rule:evenodd;stroke:none;stroke-opacity:1"
       d="M 142.4611 719.9741 C 172.1051 686.7690 188.8016 663.0373 182.0473 645.1914 C 192.7181 659.4443 193.9159 660.7499 199.9041 667.2775 C 205.8925 673.8051 207.0900 675.1107 220.3721 686.9682 C 203.1734 678.7037 178.0934 693.2967 142.4611 719.9741 z "
       id="path595"
       sodipodi:nodetypes="ccccc" />
    <path
       style="font-size:12;fill:#ffffff;fill-opacity:1;fill-rule:evenodd;stroke:none;stroke-width:1;stroke-opacity:1"
       d="M 450.8050 818.5039 C 445.9809 774.2538 446.1870 745.2379 462.0554 734.6413 C 445.0881 740.0377 443.3546 740.4040 434.6878 742.2355 C 426.0209 744.0670 424.2875 744.4333 406.5875 746.3629 C 425.3864 749.6335 437.3140 776.0853 450.8050 818.5039 z "
       id="path596"
       sodipodi:nodetypes="ccccc" />
    <path
       style="font-size:12;fill:#ffffff;fill-opacity:1;fill-rule:evenodd;stroke:none;stroke-width:1;stroke-opacity:1"
       d="M 514.2646 798.1294 C 500.5415 755.7854 494.8418 727.3340 508.2234 713.7315 C 492.7082 722.4660 491.0855 723.1772 482.9724 726.7332 C 474.8591 730.2891 473.2365 731.0003 456.2989 736.4895 C 475.3700 735.8683 492.4283 759.3413 514.2646 798.1294 z "
       id="path597"
       sodipodi:nodetypes="ccccc" />
    <path
       style="font-size:12;fill:#ffffff;fill-opacity:1;fill-rule:evenodd;stroke:none;stroke-opacity:1"
       d="M 573.1673 764.6225 C 550.9858 726.0307 539.5268 699.3726 549.8068 683.2972 C 536.4329 695.0509 534.9922 696.0822 527.7896 701.2388 C 520.5868 706.3953 519.1463 707.4267 503.7096 716.2992 C 522.2403 711.7484 543.7831 731.1873 573.1673 764.6225 z "
       id="path598"
       sodipodi:nodetypes="ccccc" />
    <path
       style="font-size:12;fill:#ffffff;fill-opacity:1;fill-rule:evenodd;stroke:none;stroke-opacity:1"
       d="M 623.6221 719.9311 C 593.9781 686.7260 577.2816 662.9943 584.0359 645.1484 C 573.3651 659.4013 572.1673 660.7069 566.1791 667.2345 C 560.1907 673.7621 558.9932 675.0677 545.7111 686.9252 C 562.9098 678.6607 587.9898 693.2537 623.6221 719.9311 z "
       id="path599"
       sodipodi:nodetypes="ccccc" />
  </g>
</svg>
